X:1
T:Sonata (Turina)
T:Sonata
T:Joaquín Turina Pérez (1882 - 1949)
T:Op. 61
C:Joaquín Turina Pérez
%%score ( 1 2 3 )
L:1/8
Q:1/4=80
M:3/4
K:C
V:1 treble-8 nm="Classical Guitar" snm="Guit."
V:2 treble-8 
V:3 treble-8 
V:1
"^Ad libitum""^I"!mf! A7/4d/4 a2- a/^g/(e/=g/) | ^f/=f/(^c/_e/) d/_B/(^G/A/) F/E/(^C/D/) | %2
 =C/_B,/F,/G,/ A,2- (3A,F,_E, | G7/4=e/4 _b2- b/c'/(a/b/) | g/a/f/g/ (e/f/)g/a/ (_b/c'/)a/b/ | %5
 (g/f/)e/d/ (^c/d/)=c/B/ A/B/A/G/ |[Q:1/4=140]"^Allegro" (3D,A,D (3E,A,D!<(! (3F,A,D | %7
 (3G,A,D (3A,CD (3C_EG!<)! | (3D,A,D (3E,A,D (3F,A,D |"^III" (3G,CF (3A,C^F (3_B,DG | %10
 (_bc') ba b"^III"g | a_b a^g af | d^c d_B cA | (=c_B) (^GA) F_E | (3D,A,D (3E,A,D!<(! (3F,A,D | %15
 (3G,A,D (3A,CD (3C_EG!<)! | (3D,A,D (3E,A,D (3F,A,D |"^III" (3G,CF (3A,C^F (3_B,DG | %18
"^V" (a_b) (ab) ag | (f_e) (de) fg |"^V" (a_b) (a=b) ag |"^poco rit." (^fe) (^de) BA || %22
[M:2/4][Q:1/4=70]"^Allegretto tranquillo"!p! [DGB]"_espressivo"B/>A/ BB/>A/ | BB- B/A/B/c/ | %24
 d/e/(g/e/) (B/d/)(B/A/) | (G/E/) D3 | [DGB]B/>A/ BB/>A/ | BB- B/(^F/G/)A/ | %28
 (B/^c/)!<(!d/B/-"^II" B/(c/d/)B/!<)! |!<(!"^VII" ([d^f]/a/)f/a/"^VIII" ([gc']/_b/)a/g/!<)! | %30
!>(!"^VII" (^f/a/)f/a/ d/A/E/D/!>)! |!p! dd/>c/ dd/>c/ |"^III" [F_Bd]d- d/c/d/_e/ | %33
"^I" ([_Acf]/g/)(_a/g/) (f/_e/)d/c/ | z d=f_e | dd/>c/ dd/>c/ |"^III" [F_Bd]d- d/(B/A/)G/ | %37
 ^F/A/F/A/ (c/_B/)A/G/ | ^F/A/F/A/ (c/_B/)A/G/ | A/^F/A/=F/ A/E/A/_E/ | %40
"_dolcissimo" [DGB]B/>A/ BB/>A/ | BB- B/A/B/c/ | d/e/(g/e/) (B/d/)(B/A/) | (G/E/) D3 | %44
!8va(! !plus!c'2 !plus!g'2!8va)! | ag f_e | ag =ed | z!pp! D, E,G, | B,D EG | B4 | %50
[M:3/4][Q:1/4=140]"^Allegro"!p! (3B,^FB (3^CFB (3DFB | (3E^FB (3FAB (3Ace | (3B,^FB (3^CFB (3DFB | %53
!<(!"^II" (3EAd (3FAd"^IV" (3^FB^d!<)! | (3Beg (3B^fa (3Bgb | (3Beg (3B^fa (3Bgb | (ab) ag ^fg | %57
 (^fe) (dc) B_B |!f! (3Ace (3Ac^f (3Bdg |"^V" (3Ace (3Ac^f (3Bdf | =f2!<(! [Bdg]2 [cea]2 | %61
 [dfb]2 [egc']2!ff! [fad']2!<)! |!f! (3Ace (3Ac^f (3Bdg | (ea) e=f (gf) | (ea) eg (^f=f) | %65
 !arpeggio![EGBe]4 !>!^C2 | !>!E2 !>!G2 !>!_B2 | [EG=Be]4 !>!^C!>!D | !>!E!>!F !>!G!>!A !>!_B!>!d | %69
 e>(f e)d e^c |"^III" d(e d)^c (df) | (e>f) ed e^c |!<(!"^III" (de) fg (a_b)!<)! | %73
[Q:1/4=80]"^Lento"!ff! A7/4d/4 a2- a/^g/e/=g/ | ^f/=f/(^c/_e/) d/_B/(^G/A/) F/E/(^C/D/) | %75
 =C/_B,/F,/G,/ A,2- (3A,F,_E, | G7/4=e/4 _b2- b/c'/(a/b/) | %77
"^rall." g/f/e/d/!>(! c/_B/(A/G/) F/_E/F/G/!>)! || %78
[Q:1/4=140]"^Allegro"!p! (3D,A,D (3E,A,D (3F,A,D | (3G,A,D (3A,CD (3C_EG | %80
 (3D,A,D (3E,A,D (3F,A,D | (3G,A,D (3A,C^F (3_B,DG | (_bc') ba bg |"^III" (a_b) a^g af | %84
 d^c d_B cA | (=c_B) (^GA) (cB) || %86
[M:2/4][Q:1/4=70]"^Allegretto tranquillo"!p! ^f"_espressivo"f/>e/ ff/>e/ | ^ff- f/(e/f/)g/ | %88
 a/b/(d'/b/) (^f/a/)f/e/ | (d/B/) A2 z |"^II" [A^c^f]f/>e/ ff/>e/ | ^ff- f/B/(^c/d/) | %92
 ([A^ce]/!<(!^f/)(a/f/-)"^VII" [df]/^g/(a/f/)!<)! | ([A^ce]/^f/)"^VII"(a/f/-) [df]/b/(^g/f/) | %94
"^II" ([A^c]/e/)c/e/"^III" ([dg]/=f/)e/d/ |!>(!"^II" ([A^c]/e/)c/e/ A/E/B,/A,/!>)! | %96
!f! [cea]a/>g/"^IV" [^da]a/>g/ | [cea]a- a/(f/e/)d/ |!<(! ^c/e/c/e/ (g/f/)e/d/!<)! | %99
 (^c/e/)(c/e/) (g/a/)f/e/ |"^III"!>(! d/^c/d/=c/ B/e/_B/e/!>)! |!p!"^II" [A^c^f]f/>e/ ff/>e/ | %102
 ^ff- f/(e/f/)g/ | a/b/(d'/b/) (^f/a/)(f/e/) | (d/B/) A2 z | ^F B3 | %106
!8va(! !plus!^f'2 !plus!b'2!8va)! ||[M:3/4][Q:1/4=140]"^Allegro"!p! ^fb (fe) de | ^ce =ce Be | %109
 A"_cresc."d EA (Be) | Ad EA (Be) | Ad EA (Be) | Ad EA (Be) | z2!f! =C2 _B,2 | %114
 !>!!fermata![Ad^f]2 z4 |][M:3/4][Q:1/4=60]"^Andante""^II"!mf! ([G^ce]/f/)g/a/ g2 z/ (f/e/)d/ | %116
"^II" ([A^c]/d/) e2 z z2 | [G^ce]/(f/g/)a/ _b3"^III" [=Bdg] | %118
"_dim." [Acf][EGd] [FAe][DFc] [CFA][B,E^G] |!p! A,3/2(3(_B,/4C/4B,/4) A,2- A,/(G,/F,/)E,/ | %120
 (F,/E,/)(F,/G,/) A,3 !>![A^ce] |!pp!"^(como eco)" A,3/2(3(_B,/4C/4B,/4) A,2- A,/G/(F/G/) | %122
 (E/D/)(F,/G,/) A,3 !>![A^ce] |!<(! A2 e2 a2!<)! | %124
!f! !>!g2-"_energico" g/4(f/4e/4)d/4(^c/4d/4)(e/4f/4) g7/4a/4 | %125
 !>!g2- g/4(f/4e/4)d/4(^c/4d/4)(e/4f/4) g7/4_b/4 | !>!g2- g/e/d/=c/ (A/G/)(E/D/) | %127
 !>!A,7/4!>!G,/4 !>!A,4 | !arpeggio![DGBg-]2"_dolcissimo" (g/4^f/4e/4d/4^c/4d/4e/4f/4 g7/4)a/4 | %129
 !arpeggio![DGBg-]2 (g/4^f/4e/4d/4^c/4d/4e/4f/4 g7/4)=b/4 | %130
 !arpeggio![DGBg-]2 (g/e/)^f/d/ (e/^c/)=c/_B/ |!mf! AG A_B cd | %132
 z"_espressivo" [^GBe]2 [Acf] [Bdg][GBe] | z [Acf]2 [Bdg] [cea][Bdg] | z [^GBe]2 b ^g[GBe] | %135
 z [Acf]2 c' (a/b/)g/f/ | z [A^ce]2 [Acf] [Ace][_Bdg] | z [cfa]2 [_B_eg] [cfa][Beg] | %138
 z [A^ce]2 [Acf] [Ace][_Bdg] | z [A^ce] ab =c'^c' |"^XII" e'2 [B,E^G]2 [CFA]2 | %141
 [D=GB]2 [G^ce]2 [GBdg]2 |"^XII" e'2 [GBdg]2 [FAcf]2 | [E^GBe]2 [D=GB]2 [B,E^G]2 | %144
"^V" [ce]"_cantando"[dg] [ce][dg] [ce]"^III"[FB^d] | [ce][fa] [ce][dg] [ce][FB^d] | %146
 [dfb]c' d'b c'a | [dfb]c' ab a^g | [ce][d=g] [ce][dg] [ce][FB^d] | %149
 [ce][fa]"^VIII" [gc'][fa] [ce][FB^d] |!p! [cg]f g_a _ba |!f! [cg]f g_a gf | %152
 ([G^ce]/f/)g/a/ g2 z/ (f/e/)d/ |"^II" (([A^c]/d/)) e2 z z2 | [G^ce]/f/g/a/ _b3 [=Bdg] | %155
"_dim." [Acf][EGd] [FAe][DFc] [CFA]!p![B,E^G] |!f! g2- g/4(f/4e/4)d/4(^c/4d/4)(e/4f/4) g7/4a/4 | %157
 g2- g/4(f/4e/4)d/4(^c/4d/4)(e/4f/4) g7/4_b/4 | g2- g/e/d/=c/ (A/G/)(E/D/) | %159
 _B,7/4C/4 B,7/4_D/4 B,7/4E/4 | A,2- A,/G,/(A,/_B,/) C/D/(E/F/) | (E/D/)E/F/ (G/A/)_B/c/ d/e/f/a/ | %162
 [DGBg-]2 (g/4^f/4e/4d/4^c/4d/4e/4f/4 g7/4)a/4 | [DGBg-]2 (g/4^f/4e/4d/4^c/4d/4e/4f/4 g7/4)=b/4 | %164
 [DGBg-]2 (g/e/)^f/d/ (e/^c/)=c/_B/ |!mf! AE, =F,G, _B,[E_Bd] | [A^c][Be] [Ac][Be] [Ac][D^G^B] | %167
 [A^c][df] [Ac][Be] [Ac][D^G^B] | ^f^g af g[^c^e] | ^f^g fg ^ef | [A^c][B=e] [Ac][Be] [Ac][D^G^B] | %171
"^II" [A^c]e ^fa ^c'"^XII"e' | [=C=FA]2 [DGB]2 [CFA]2 | [A^ce]^f ab ^c'"^XII"e' | %174
 [=C=FA]2 [DGB]2 [CFA]2 |!mp! a2 e'2 [E,A,E]2 |"^VII" a2"^XII" e'2 E,2 | !arpeggio![EA^ce]4 z2 |] %178
[M:3/8][Q:1/4=120]"^Allegro vivo"!ff!"^III" !arpeggio![D,A,DA] da- | a/_b/(g/a/)f/_e/ | %180
 !arpeggio![D,A,DA] da- | a/_b/(g/a/)(f/g/) |"^dim." !///![A,EA^ce]3 | %183
 [A,EA^ce][A,EG=ce][A,D_Bdg] |!ff! !///![A,EA^ce]3 | [A,EA^ce][A,EG=ce][A,D_Bdg] | [D,A,DA] da- | %187
 a/_b/(c'/a/)b/g/ |"_dim." a/f/(g/e/)f/g/ | a/f/(g/e/)f/d/ | (e/c/)d/_B/(c/d/) |!p! [D,A,] DA- | %192
 A/_B/(G/A/)F/_E/ | [D,A,] DA- | A/_B/(G/A/)F/G/ |"^rasg." !///![F,CFA]3 | cA[DG] | %197
"^rasg." !///![F,CFA]3 | cA[DG] | (A,/B,/)^C/D/E/F/ | G/A/(c/_B/)A/G/ | (A,/=B,/)^C/D/E/F/ | %202
 G/A/_B/=c/d/e/ |!sfz! [Fcea][Gdf=b][Adfc'] | [Fcea][Gdf=b] z |!pp! (A,/=B,/)^C/D/E/F/ | %206
 G/A/_B/=c/d/e/ | [F,CFA][G,DG=B][A,Gce] | [E,B,E^G][F,CFA] (D,/E,/) | (F,/=G,/)(A,/_B,/)(C/B,/) | %210
 A,2 [DG=Be] |!ppp! (F,/G,/)(A,/_B,/)(C/B,/) | A,2 [DG=Be] |[Q:1/4=115] GA[Q:1/4=110]F | %214
 A[Q:1/4=105]_EA ||[M:2/4][Q:1/4=100]"^Allegro moderato"!p! F, [cea]3 | G,[df_b]"^VIII" C[egc'] | %217
 F, [cea]3 | _B,[f_a_d']"^VIII" C[egc'] | z (f/g/) f/e/f/d/ | ecdA | c3 z | z dAG | F, [cea]3 | %224
 G,[df_b] C[egc'] | F, [cea]3 | _B,[f_a_d'] C[egc'] | z!mf! (_a/_b/) a/g/a/f/ | g_e fd | _e3 z | %230
"^III" z (_Bc)_e |"^IV" _a f3 |"^III" z (_Bc)_e |"^V" c'_a gf | =e4 | z"^I" fg_a | e4 | %237
 z"^I" fg[G=B=e] | c4 | _B,DAG | z!p! (f/g/) f/e/f/d/ | ecdA | c3 z | z dAG || %244
[M:3/8][Q:1/4=120]"^Allegro vivo"!ff! [D,A,DA] da- | a/_b/(g/a/)f/_e/ | [D,A,DA] da- | %247
 a/_b/(g/a/)(f/g/) |"^rasg." !///![A,EA^ce]3 | [A,EA^ce][A,EG=ce][A,D_Bdg] | !///![A,EA^ce]3 | %251
 [A,EA^ce][A,EG=ce][A,D_Bdg] | [D,A,DA] da- | a/_b/(c'/a/)b/g/ | a/f/(g/e/)f/g/ | a/f/(g/e/)f/d/ | %256
 e/c/d/_B/(c/d/) |!p! [D,A,] DA- | A/_B/(G/A/)F/_E/ | [D,A,] DA- | A/_B/G/A/F/G/ | %261
"^rasg." !///![F,CFA]3 | cA[DG] |"^rasg." !///![F,CFA]3 | cA[DG] | (A,/B,/)^C/D/E/F/ | %266
 G/A/c/_B/A/G/ |!<(! (A,/=B,/)^C/D/E/F/!<)! | G/A/_B/=c/d/e/ |!f!"^rasg." !///![A,EA^ce]3 | %270
 !//![A,DGBe]!//![A,DA^c^f]!//![A,D_Bdg] | !///!!arpeggio![c=ea]3 | %272
 !//![A,DGBe]!//![A,DA^c^f]!//![A,D_Bdg] |!ff! !arpeggio![=cea] _EG | _Bdf | !arpeggio![cea] _EG | %276
 _Bdf | !arpeggio![cea]"^rit.""_dim." _B=B | de^e || %279
[M:2/4][Q:1/4=70]"^Allegretto tranquillo"!mf! [A^f]f/>e/ ff/>e/ | ^ff- f/(e/f/)g/ | %281
 a/b/(d'/b/) (^f/a/)f/e/ | (d/B/) A2 z | [DA^f]f/>e/ ff/>e/ | ^ff- f/(B/^c/)d/ | %285
 (e/^f/)a/f/"^VII" (b/^g/)f/=f/ | (e/^f/)a/f/ (b/^c'/)d'/e'/ | [=F,=C=FA][G,DGB] e"^XII"e' | %288
 [F,CFA][G,DGB] e"^XII"e' | %289
"_dim.""^dim." !arpeggio![Acf]!arpeggio![Bdg] !arpeggio![cea]!arpeggio![dfb] | %290
 !arpeggio![egc']!arpeggio![fad']!arpeggio![gbe']!arpeggio![ac'f'] | %291
!pp! D,^D,G, !arpeggio![DGce] || %292
[M:3/8][Q:1/4=120]"^Allegro vivo""_dolcissimo" (A,/B,/)^C/D/ (C/D/) |E/F/ G/A/(c/_B/) | %294
 (A,/B,/)^C/D/ (C/D/) | E/F/ G/A/c/_B/ |!mf! a>aa |"^VI" [_df_b]"^V"[=cea]"^III"[_Bdg] | a>aa | %299
 [c_eg][c=fa][_Beg] | (d/_e/)c/d/_B/c/ | A/_B/G/A/B/d/ | (c/d/)_B/c/A/B/ | (G/A/)F/G/(A/B/) | %304
 (_B/c/)A/B/G/A/ | F/G/_E/F/D/E/ |!<(! .C._B,.A, | .G,.F,._E,!<)! |!ff! !arpeggio![D,A,DA] da- | %309
 a/g/(a/_b/)c'/d'/ | [D,A,DA] da- | a/_b/(c'/b/)a/g/ |"^cresc." [D,A,DAd^f]>[D,A,DAdf][D,A,DAdf] | %313
 [_Ec=fa][F_B_eg][Ecfa] | [D,A,DAd^f]>[D,A,DAdf][D,A,DAdf] | [_Ec=fa][F_B_eg][Ecfa] | %316
!ff! [D,A,DG] =B=e- | e/d/(e/f/)g/a/ | [D,A,DG] Be- | e/f/g/f/e/d/ |"^rasg." !///![A,EA^ce]3 | %321
 [GBe]"^II"[A^c^f]"^III"[_Bdg] |"^rasg." !///![A,EA^ce]3 | [GBe]"^II"[A^c^f]"^III"[_Bdg] | %324
"^V" ([=cea]/_b/)c'/a/b/g/ | a/f/g/e/(f/g/) | a/f/(g/e/)f/d/ | e/c/d/_B/(c/d/) | %328
 !arpeggio![D,A,D]DA | !arpeggio![A,DG]cg | [D,A,D]DA | [A,DGc]dg |"^rasg." !///![A,DGBe]3 | %333
 !///![A,D_Bdg]3 | !///![A,DG=Be]3 | !///![A,Dcea]3 | !//![A,DGBe]3/2 !>!D/!>!E/!>!F/ | %337
 !>!G/!>!A/!>!_B/!>!c/!>!d/!>!f/ |"^rasg."!<(! !///![d^fa]3 | !///![d^fa]3!<)! | !>![d^fa] z2 |] %341
V:2
 [D,A,D]2 z2 z2 | x6 | x6 | [D,A,D]2 z2 z2 | x6 | x6 | D,2 E,2 F,2 | G,2 A,2 C2 | D,2 =E,2 F,2 | %9
 G,2 A,2 _B,2 | [G=f]4 z2 | [Fe]4 z2 | x6 | x6 | D,2 =E,2 F,2 | G,2 A,2 C2 | D,2 =E,2 F,2 | %17
 G,2 A,2 _B,2 | [Dc=e]4 z2 | x6 | [Dc=e]4 z2 | x6 ||[M:2/4] G,2 F2 | E2 _E2 | x4 | %25
 z2 z/ E,/G,/B,/ | G,2 F2 | E2 z2 | [A,D]2 [A,E]2 | A2 _e2 | [Ad]2 z2 | _B2 A2 | G,2 z2 | D2 z2 | %34
 [A,D^F]2 z2 | _B2 A2 | G,2 z2 | [D,A,]2 [A,D]2 | [D,A,]2 [A,D]2 | x4 | G,2 F2 | E2 _E2 | D2 z2 | %43
 z2 z D, |!8va(! x4!8va)! | [DGB]2 z2 | [DGB]2 z2 | x4 | x4 | x4 |[M:3/4] B,2 ^C2 D2 | E2 ^F2 A2 | %52
 B,2 ^C2 D2 | E2 =F2 ^F2 | B2 B2 B2 | B2 B2 B2 | x6 | x6 | !arpeggio![A,D]4 z2 | !arpeggio!A,4 z2 | %60
 D,2 E2 F2 | G2 A2 B2 | [A,D]4 z2 | [A,G^c]4 B2 | [A,G^c]4 B2 | [D,A,]4 z2 | x6 | [D,A,]4 z2 | x6 | %69
 [A,A^c]4 z2 | [A,F_B]4 z2 | [A,A=c]4 z2 | [A,F_B]4 z2 | [D,A,D]2 z2 z2 | x6 | x6 | %76
 [D,A,D]2 z2 z2 | x6 || D,2 E,2 F,2 | G,2 A,2 C2 | D,2 =E,2 F,2 | G,2 A,2 _B,2 | [G=f]4 z2 | %83
 [Fe]4 z2 | x6 | x6 ||[M:2/4] [A,D^c]2 B2 | D,A, D2 | z2 z2 | z2 z/ _B,/D/=F/ | D2 B2 | D,A, A2 | %92
 A,2 A2 | A,2 A2 | E2 _B2 | E2 z2 | F2 B2 | F2 z2 | [A,G]2 [EB]2 | [A,G]2 z2 | x4 | D2 B2 | %102
 D,A, D2 | A,2 z2 | z2 z/ _B,/D/=F/ | x4 |!8va(! x4!8va)! ||[M:3/4] x6 | x6 | [D,A,D]4 [DG]2 | %110
 [D,A,D]4 [DG]2 | [D,A,D]4 [DG]2 | [D,A,D]4 [DG]2 | x6 | !>![D,A,D]2 x4 |][M:3/4] A,2 z2 E,2 | %116
 A,3 E,G,D | A,2 z3 F | DB, CA, F,E, | x6 | x6 | x6 | x6 | x6 | x6 | x6 | x6 | x6 | [E,A,]2 z2 z2 | %129
 [E,A,]2 z2 z2 | [E,A,]2 z2 z2 | _E4 [EG]2 | E,6 | E,6 | E,6 | E,6 | A,6 | A,6 | A,6 | A,6 | %140
 z2 E,2 F,2 | G,2 A,2 D2 | z2 D2 C2 | B,2 G,2 E,2 | z2 z2 z G, | z2 z2 z G, | G2 z2 z2 | G2 z2 z2 | %148
 z2 z2 z G, | z2 z2 z G, | [_A,=D]2 z2 z2 | [_A,=D]2 z2 z2 | =A,2 z2 E,2 | A,3 E,G,D | A,2 z3 F | %155
 DB, CA, F,E, | x6 | x6 | x6 | x6 | x6 | x6 | [E,A,]2 z2 z2 | [E,A,]2 z2 z2 | [E,A,]2 z2 z2 | x6 | %166
 z2 z2 z E, | z2 z2 z E, | [EAd]4 E,2 | [EAd]4 =E,2 | z2 z2 z E, | A,2 z2 z2 | =F,2 G,2 F,2 | %173
 A,2 z2 z2 | =F,2 G,2 F,2 | x6 | x6 | A,4 z2 |][M:3/8] x3 | x3 | x3 | x3 | x3 | x3 | x3 | x3 | x3 | %187
 x3 | x3 | x3 | x3 | x3 | x3 | x3 | x3 | x3 | x3 | x3 | x3 | x3 | x3 | x3 | x3 | x3 | x3 | x3 | %206
 x3 | x3 | x3 | x3 | x3 | x3 | x3 | x3 | x3 ||[M:2/4] x4 | x4 | x4 | x4 | x4 | x4 | z2 z D, | %222
 G,2 z C | x4 | x4 | x4 | x4 | x4 | x4 | z2 z _E | F2 z _B | z2 c_E | G2 z _B | %233
 !arpeggio![D_Acf] z z2 | z _AGG, | D, [D_Ac]2 z | z _AGG, | D, [D_Ac]2 G, | z D,E,G, | x4 | x4 | %241
 x4 | z2 z D, | G,2 z C ||[M:3/8] x3 | x3 | x3 | x3 | x3 | x3 | x3 | x3 | x3 | x3 | x3 | x3 | x3 | %257
 x3 | x3 | x3 | x3 | x3 | x3 | x3 | x3 | x3 | x3 | x3 | x3 | x3 | x3 | !///![D,A,D]3 | x3 | %273
 [D,A,D] z z | x3 | [D,A,D] z z | x3 | [D,A,D] z z | x3 ||[M:2/4] [D,D]2 B2 | D,A, D2 | z4 | %282
 z2 z/ E,/(G,/_B,/) | D,2 B2 | D,A, A2 | [Ec] z [Ad^f] z | [Ec] z [Ad^f] z | x4 | x4 | x4 | x4 | %291
 x4 ||[M:3/8] x3 | x3 | x3 | x3 | [d^f]2 [df] | x3 | [d^f]2 [df] | x3 | x3 | x3 | x3 | x3 | x3 | %305
 x3 | x3 | x3 | x3 | x3 | x3 | x3 | x3 | x3 | x3 | x3 | x3 | x3 | x3 | x3 | x3 | x3 | x3 | x3 | %324
 x3 | x3 | x3 | x3 | x3 | x3 | x3 | x3 | x3 | x3 | x3 | x3 | x3 | x3 | !///![D,A,D]3 | %339
 !///![D,A,D]3 | !>![D,A,D] z2 |] %341
V:3
 x6 | x6 | x6 | x6 | x6 | x6 | x6 | x6 | x6 | x6 | x6 | x6 | x6 | x6 | x6 | x6 | x6 | x6 | x6 | %19
 x6 | x6 | x6 ||[M:2/4] x4 | x4 | x4 | x4 | x4 | x4 | x4 | x4 | x4 | x4 | x4 | x4 | x4 | x4 | x4 | %37
 x4 | x4 | x4 | x4 | x4 | x4 | x4 |!8va(! x4!8va)! | x4 | x4 | x4 | x4 | x4 |[M:3/4] x6 | x6 | x6 | %53
 x6 | x6 | x6 | x6 | x6 | x6 | x6 | x6 | x6 | x6 | x6 | x6 | x6 | x6 | x6 | x6 | x6 | x6 | x6 | %72
 x6 | x6 | x6 | x6 | x6 | x6 || x6 | x6 | x6 | x6 | x6 | x6 | x6 | x6 ||[M:2/4] x4 | x4 | x4 | x4 | %90
 x4 | x4 | x4 | x4 | x4 | x4 | x4 | x4 | x4 | x4 | x4 | x4 | x4 | x4 | x4 | x4 |!8va(! x4!8va)! || %107
[M:3/4] x6 | x6 | x6 | x6 | x6 | x6 | x6 | x6 |][M:3/4] x4 [G_B]2 | x6 | x6 | x6 | x6 | x6 | x6 | %122
 x6 | x6 | x6 | x6 | x6 | x6 | x6 | x6 | x6 | x6 | x6 | x6 | x6 | x6 | x6 | x6 | x6 | x6 | x6 | %141
 x6 | x6 | x6 | x6 | x6 | x6 | x6 | x6 | x6 | x6 | x6 | x4 [G_B]2 | x6 | x6 | x6 | x6 | x6 | x6 | %159
 x6 | x6 | x6 | x6 | x6 | x6 | x6 | x6 | x6 | x6 | x6 | x6 | x6 | x6 | x6 | x6 | x6 | x6 | x6 |] %178
[M:3/8] x3 | x3 | x3 | x3 | x3 | x3 | x3 | x3 | x3 | x3 | x3 | x3 | x3 | x3 | x3 | x3 | x3 | x3 | %196
 x3 | x3 | x3 | x3 | x3 | x3 | x3 | x3 | x3 | x3 | x3 | x3 | x3 | x3 | x3 | x3 | x3 | x3 | x3 || %215
[M:2/4] x4 | x4 | x4 | x4 | x4 | x4 | x4 | x4 | x4 | x4 | x4 | x4 | x4 | x4 | x4 | x4 | x4 | x4 | %233
 x4 | x4 | x4 | x4 | x4 | x4 | x4 | x4 | x4 | x4 | x4 ||[M:3/8] x3 | x3 | x3 | x3 | x3 | x3 | x3 | %251
 x3 | x3 | x3 | x3 | x3 | x3 | x3 | x3 | x3 | x3 | x3 | x3 | x3 | x3 | x3 | x3 | x3 | x3 | x3 | %270
 x3 | x3 | x3 | x3 | x3 | x3 | x3 | x3 | x3 ||[M:2/4] x4 | x4 | x4 | x4 | x4 | x4 | x4 | x4 | x4 | %288
 x4 | x4 | x4 | x4 ||[M:3/8] x3 | x3 | x3 | x3 | x3 | x3 | x3 | x3 | x3 | x3 | x3 | x3 | x3 | x3 | %306
 x3 | x3 | x3 | x3 | x3 | x3 | x3 | x3 | x3 | x3 | x3 | x3 | x3 | x3 | x3 | x3 | x3 | x3 | x3 | %325
 x3 | x3 | x3 | x3 | x3 | x3 | x3 | x3 | x3 | x3 | x3 | x3 | x3 | x3 | x3 | x3 |] %341

